svgs/sharp-light/magnet.svg

<svg xmlns="http://www.w3.org/2000/svg" viewBox="0 0 448 512"><!--! Font Awesome Pro 6.4.2 by @fontawesome - https://fontawesome.com License - https://fontawesome.com/license (Commercial License) Copyright 2023 Fonticons, Inc. --><path d="M0 32H16 128h16V48 256c0 44.2 35.8 80 80 80s80-35.8 80-80V48 32h16H432h16V48 256c0 123.7-100.3 224-224 224S0 379.7 0 256V48 32zM32 64v64h80V64H32zm0 192c0 106 86 192 192 192s192-86 192-192V160H336v96c0 61.9-50.1 112-112 112s-112-50.1-112-112V160H32v96zM416 128V64H336v64h80z"/></svg>

<svg xmlns="http://www.w3.org/2000/svg" viewBox="0 0 448 512"><!--! Font Awesome Pro 6.6.0 by @fontawesome - https://fontawesome.com License - https://fontawesome.com/license (Commercial License) Copyright 2024 Fonticons, Inc. --><path d="M0 32l16 0 112 0 16 0 0 16 0 208c0 44.2 35.8 80 80 80s80-35.8 80-80l0-208 0-16 16 0 112 0 16 0 0 16 0 208c0 123.7-100.3 224-224 224S0 379.7 0 256L0 48 0 32zM32 64l0 64 80 0 0-64L32 64zm0 192c0 106 86 192 192 192s192-86 192-192l0-96-80 0 0 96c0 61.9-50.1 112-112 112s-112-50.1-112-112l0-96-80 0 0 96zM416 128l0-64-80 0 0 64 80 0z"/></svg>
